X:1
T:Title
%%score { ( 1 3 5 ) | ( 2 4 ) }
L:1/8
Q:1/4=116
M:4/4
K:Eb
V:1 treble nm="Grand Piano"
V:3 treble 
V:5 treble 
V:2 bass 
V:4 bass 
V:1
 [GB]2 [GB]2 [GB]2 [GB]2 | [Ge]4 [G,E]2 [=A,EF]2 | [B,EG]4 [A,DF]4 | [G,E]8 | %4
w: Herbert~G.~Tovey * * *||||
 [DF]3 [DG] [DA]2 [DG]2 | [DA]2 [DB]2 [Ac]2 [Ad]2 | [Ge]2 c2 B2 G2 | [DF]2 [DG]2 AB[Dc]d | %8
w: ||||
 [Ge]2 [Ae]2 [Be]2 [Ae]2 | G2 z2 z4 | [EG]4 [DB]4 | E8 | e2- [CAe]2 e2- [=A,_Ge]2 | %13
w: |||||
[M:3/4] e2- [Ae-]2 [Ge]2 |[M:1/4] [B,EG]2 |[M:4/4] [B,FA]2 [DGB]2 A2- [Ad]2 | e2- [Fe-]2 [Ee]4 | %17
w: ||||
 c4 c4 |[M:3/4] c6 |[M:1/4] [G,EG]2 |[M:4/4] [F,=A,EF]2 [B,EG]2 [E=A]2 [Ec]2 | [DB]6 z2 | %22
w: |||||
 [DB]2 [D=A]2 [DB]2 [Dc]2 | [Ad]2 B2 [Ge]2 [B,EG]2 | [CEG]2 [DFA]2 [CEG]2 [=B,DF]2 | %25
w: |||
 [G,CE]2 [F,=B,D]2 [E,C]2[K:treble] [Ec]2 | [DB]2 [D=A]2 [DB]2 [DAc]2 | [Ad]2 B2 [Ge]2 [CEA]2 | %28
w: |||
 z4 F4 |[M:3/4] E4 z2 |[M:4/4] E2 F2 G2 B2 | e4 E2 [=A,EF]2 | [=A,CEG]4 [A,CE]4 | D4- [DF]4 | %34
w: ||||||
[M:6/4] z2 F2 G2 B4 c2 | c6[K:bass][K:treble] z6 | [=A,EF]2 [EG]2 =A2 d4 c2 | c6 z6 | %38
w: ||||
 e2 d2 c2 B4 c2 | [Dc]4 [DB]2 [DB]4 .[A,DA]2 | [B,EG]4 [=B,FG]2 e4 e2 | d4 =B2 [Ec]4 [EG]2 | %42
w: ||||
 [=A,EF]4 [B,EG]2 [CE=A]4 [Ge]2 | [Fd]6 [Ec]6 | z4 [Ad]2- [Ad]6 |[M:4/4] [Ge]2 [GB]2 [Ac]2 [GB]2 | %46
w: ||||
 G4 E2 E2 | E8 | [A,DF]8 | [G,E]6 z2 | z8 | z4 [A,DG]4 | E8 | [G,B,E]4 B,2- [G,B,E]2 | %54
w: ||||||||
 [A,DG]4 [G,E]4 | [B,EG]4 [DF]2 [EG]2 | [B,DB]3 [B,DA] G4 | e2 e2 d2 d2 | c2 c2 c2 B2 | %59
w: |||||
 B2 B2 c2 d2 | f2 f2 e2 c2 | B2 G2 A2 G2 | c4 B2 A2 | G6 z2 | E6 z2 | [GB]2 [GB]2 [GB]2 [GB]2 | %66
w: |||||||
 [Ge]4 [G,E]2 [=A,EF]2 | [B,EG]4 [A,DF]4 | [G,E]8 | [DF]3 [DG] [DA]2 [DG]2 | %70
w: ||||
 [DA]2 [DB]2 [Ac]2 [Ad]2 | [Ge]2 c2 B2 G2 | z4 .A2 z2 | [Ge]2 [Ae]2 [Be]2 [Ae]2 | G2 z2 z4 | %75
w: |||||
 [EG]4 [DB]4 | E8 | e2- [CAe]2 e2- [=A,_Ge]2 | G2 z2 z4 | [B,FA]2 [DGB]2 A2- [Ad]2 | %80
w: |||||
 e2- [Fe-]2 [Ee]4 | c4 c4 | c6 z2 | [F,=A,EF]2 [B,EG]2 [E=A]2 [Ec]2 | [DB]6 z2 | %85
w: |||||
 [DB]2 [D=A]2 [DB]2 [Dc]2 | [Ad]2 B2 [Ge]2 [B,EG]2 | [CEG]2 [DFA]2 [CEG]2 [=B,DF]2 | %88
w: |||
 [G,CE]2 [F,=B,D]2 [E,C]2[K:treble] [Ec]2 | [DB]2 [D=A]2 [DB]2 [DAc]2 | [Ad]2 [FB]2 [Ee]2 [Bf]2 | %91
w: |||
[M:6/4] [Bg]6 [DAf]6 |[M:11/8] [Ge]-[Ge]-[Ge]-[Ge]-[Ge]-[Ge]- [Ge]3 z2 |] %93
w: ||
V:2
 [E,E]2 [E,C]2 [E,B,]2 [E,G,]2 | [C,G,]4 C,2 =B,,2 | B,,4 B,,4 | E,8 | %4
 [B,,B,]3 [B,,B,] [B,,B,]2 [B,,B,]2 | [B,,F,]2 [B,,F,]2 [B,,B,]2 [B,,B,]2 | %6
 [E,B,]2 [E,A,E]2 [E,G,E]2 [E,B,E]2 | z4 z2 .A,2 | [E,B,]2 [F,B,]2 [G,B,]2 [F,B,]2 | B,2 z2 z4 | %10
 [B,,B,]4 [B,,A,]4 | [E,G,]8 | B,2 z2 B,2 z2 |[M:3/4] B,2 z2 z2 |[M:1/4] E,2 | %15
[M:4/4] D,2 B,,2 B,,2 [B,,B,]2 | B,2 z2 z4 | G,4 G,4 |[M:3/4] G,6 |[M:1/4] C,2 | %20
[M:4/4] F,,2 [F,,F,]2 [F,C]2 [F,=A,]2 | z2 A,2 G,2 [B,,F,]2 | [B,,F,]2 [B,,F,]2 [B,,B,]2 [B,,B,]2 | %23
 [B,,B,]2 [B,A]2 [E,B,]2 E,2 | C,2 =B,,2 C,2 G,,2 | G,,2 G,,2 C,2 [C,G,]2 | %26
 [B,,A,]2 [B,,A,]2 [B,,A,]2 B,,2 | [B,,B,]2 [B,A]2 [E,B,]2 E,2 | E,2 C,2 C,2 [B,,A,]2 | %29
[M:3/4] [E,G,]4 z2 |[M:4/4] z8 | [E,G,E]4 [C,G,]2 =B,,2 | F,,4 F,,4 | z4 A,4 | %34
[M:6/4] G,2 A,2 B,2 [G,B,E]4 [_G,=A,E]2 | D6- [B,,A,D]6 | z2 B,2 [CF]2 [F,=A,E]4 [F,A,E]2 | %37
 [B,,A,]6 [A,B,]6 | E6 z6 | [B,,A,]4 [B,,A,]2 B,,2- [B,,G,-]2 G,B, | %40
 E,4 D,2[K:treble] [G,=B,F]4 [G,B,F]2 | [G,=B,F]4 [G,DF]2[K:bass] [C,C]4 [C,C]2 | %42
 F,,4 F,,2 F,,4 [F,=A,]2 | [F,=A,]6 [F,A,]6 | [B,,A,]2 B,,2 [F,B,]2 z6 | %45
[M:4/4] [E,B,]2 [E,E]2 [E,E]2 [E,E]2 | [E,B,E]4 [C,=A,]2 [=B,,_G,A,]2 | [B,,G,B,]8 | B,,8 | %49
 E,6 z2 | B3 e dBcG | BEAG[K:bass] z2 z F | z2 A,2 G,4 | E,4 F,2 E,2 | z2 z F E,4 | %55
 E,2 G,2 A,2 G,2 | F,2 B,,B,, [E,B,E]4 | [GB]2 [GB]2 [FA]2 [FA]2 | [EA]2 [EA]2 [DA]2 [DA]2 | %59
 [EG]2 [DFA]2 [CFA]2 [=B,FA]2 | [B,DA]2 [=B,DA]2 [CEG]2 [CEG]2 | [EG]2 [B,E]2 [B,DF]2 [CE]2 | %62
 [=A,E_G]4 [B,E=G]2 [B,E_G]2 | E2- [=A,E]2 [_A,B,]4 | [G,B,]6 z2 | [E,E]2 [E,C]2 [E,B,]2 [E,G,]2 | %66
 [C,G,]4 C,2 =B,,2 | B,,4 B,,4 | E,8 | [B,,B,]3 [B,,B,] [B,,B,]2 [B,,B,]2 | %70
 [B,,F,]2 [B,,F,]2 [B,,B,]2 [B,,B,]2 | [E,B,]2 [E,A,E]2 [E,G,E]2 [E,B,E]2 | z4 z2 .A,2 | %73
 [E,B,]2 [F,B,]2 [G,B,]2 [F,B,]2 | B,2 z2 z4 | [B,,B,]4 [B,,A,]4 | [E,G,]8 | B,2 z2 B,2 z2 | %78
 B,2 z2 z4 | D,2 B,,2 B,,2 [B,,B,]2 | B,2 z2 z4 | G,4 G,4 | G,6 z2 | %83
 F,,2 [F,,F,]2 [F,C]2 [F,=A,]2 | z2 A,2 G,2 [B,,F,]2 | [B,,F,]2 [B,,F,]2 [B,,B,]2 [B,,B,]2 | %86
 [B,,B,]2 [B,A]2 [E,B,]2 E,2 | C,2 =B,,2 C,2 G,,2 | G,,2 G,,2 C,2 [C,G,]2 | %89
 [B,,A,]2 [B,,A,]2 [B,,A,]2 B,,2 | [B,,B,]2 [A,B,]2 [G,B,]2 [F,D]2 |[M:6/4] [E,E]6 [B,,B,]6 | %92
[M:11/8] [E,E]-[E,E]-[E,E]-[E,E]-[E,E]-[E,E]- [E,E]3 z2 |] %93
V:3
 x8 | x8 | x8 | x8 | x8 | x8 | x8 | z4 D2 z2 | x8 | e2- [Ee]2 E2 [EF]2 | x8 | x8 | G2 z2 G2 z2 | %13
[M:3/4] G2 z2 z2 |[M:1/4] x2 |[M:4/4] z4 [Dc]2 z2 | G2 z2 z4 | E2 F2 E2 D2 |[M:3/4] E2 F2 E2 | %19
[M:1/4] x2 |[M:4/4] x8 | B,2 z2 z2 [DB]2 | x8 | x8 | x8 | x6[K:treble] x2 | x8 | x8 | %28
 [B,EG]4 [=A,E]2 D2 |[M:3/4] x6 |[M:4/4] x8 | x8 | x8 | [B,G]4 z4 |[M:6/4] E6 z6 | %35
 z4[K:bass] B,,2[K:treble] B6 | x12 | D6- [DB]6 | x12 | x12 | x12 | x12 | x12 | x12 | %44
 [DB]2 .[DAc]4 [F,B,]6 |[M:4/4] x8 | x8 | x8 | x8 | x8 | x8 | x8 | G,2 C2 B,4 | z4 [A,D]2 z2 | x8 | %55
 z4 B,4 | x8 | x8 | x8 | x8 | x8 | x8 | x8 | z2 C2 z2 F2 | x8 | x8 | x8 | x8 | x8 | x8 | x8 | x8 | %72
 [DF]2 [DG]2 D-[DB][Dc]d | x8 | e2- [Ee]2 E2 [EF]2 | x8 | x8 | G2 z2 G2 z2 | %78
 e2- [Ae-]2 [Ge]2 [B,EG]2 | z4 [Dc]2 z2 | G2 z2 z4 | E2 F2 E2 D2 | E2 F2 E2 [G,EG]2 | x8 | %84
 B,2 z2 z2 [DB]2 | x8 | x8 | x8 | x6[K:treble] x2 | x8 | x8 |[M:6/4] x12 |[M:11/8] x11 |] %93
V:4
 x8 | x8 | x8 | x8 | x8 | x8 | x8 | [B,,B,]2 [B,,B,]2 [B,,F,]2 B,,-[B,,B,A] | x8 | %9
 E,2- [E,G,]2 [C,G,]2 [=B,,=A,]2 | x8 | x8 | E,4 E,4 |[M:3/4] E,2- [E,-C]2 [E,B,]2 |[M:1/4] x2 | %15
[M:4/4] x8 | E,2- [E,-A,]2 [E,G,]4 | C,2 D,2 C,2 =B,,2 |[M:3/4] C,2 D,2 C,2 |[M:1/4] x2 | %20
[M:4/4] x8 | B,,6 z2 | x8 | x8 | x8 | x8 | x8 | x8 | x8 |[M:3/4] x6 |[M:4/4] x8 | x8 | x8 | B,,8 | %34
[M:6/4] E,6 z6 | .[F,A,]6 z6 | F,,6 z6 | x12 | [G,B,]4 [G,B,]2 [E,G,E]4 [E,G,E]2 | z6 .F,4 B,,2 | %40
 x6[K:treble] x6 | x6[K:bass] x6 | x12 | x12 | x12 |[M:4/4] x8 | x8 | x8 | x8 | x8 | x8 | %51
 z4[K:bass] B,,4 | E,8 | x8 | B,,4 z4 | x8 | x8 | x8 | x8 | x8 | x8 | x8 | x8 | B,2 z2 z4 | x8 | %65
 x8 | x8 | x8 | x8 | x8 | x8 | x8 | [B,,B,]2 [B,,B,]2 [B,,F,]2 B,,-[B,,B,A] | x8 | %74
 E,2- [E,G,]2 [C,G,]2 [=B,,=A,]2 | x8 | x8 | E,4 E,4 | E,2- [E,-C]2 [E,B,]2 E,2 | x8 | %80
 E,2- [E,-A,]2 [E,G,]4 | C,2 D,2 C,2 =B,,2 | C,2 D,2 C,2 C,2 | x8 | B,,6 z2 | x8 | x8 | x8 | x8 | %89
 x8 | x8 |[M:6/4] x12 |[M:11/8] x11 |] %93
V:5
 x8 | x8 | x8 | x8 | x8 | x8 | x8 | x8 | x8 | x8 | x8 | x8 | x8 |[M:3/4] x6 |[M:1/4] x2 | %15
[M:4/4] x8 | x8 | x8 |[M:3/4] x6 |[M:1/4] x2 |[M:4/4] x8 | x8 | x8 | x8 | x8 | x6[K:treble] x2 | %26
 x8 | x8 | x8 |[M:3/4] x6 |[M:4/4] x8 | x8 | x8 | x8 |[M:6/4] x12 | x4[K:bass] x2[K:treble] x6 | %36
 x12 | x12 | x12 | x12 | x12 | x12 | x12 | x12 | x12 |[M:4/4] x8 | x8 | x8 | x8 | x8 | x8 | x8 | %52
 x8 | x8 | x8 | x8 | x8 | x8 | x8 | x8 | x8 | x8 | x8 | z4 D4 | x8 | x8 | x8 | x8 | x8 | x8 | x8 | %71
 x8 | x8 | x8 | x8 | x8 | x8 | x8 | x8 | x8 | x8 | x8 | x8 | x8 | x8 | x8 | x8 | x8 | %88
 x6[K:treble] x2 | x8 | x8 |[M:6/4] x12 |[M:11/8] x11 |] %93

